dist/img/icon/icon-mail.svg

<svg width="69" height="66" viewBox="0 0 69 66" fill="none" xmlns="http://www.w3.org/2000/svg">
<path d="M0.750082 0.75H65.2501C66.2004 0.75 67.1119 1.12753 67.7839 1.79953C68.4559 2.47154 68.8334 3.38297 68.8334 4.33333V61.6667C68.8334 62.617 68.4559 63.5285 67.7839 64.2005C67.1119 64.8725 66.2004 65.25 65.2501 65.25H0.750082C-0.200278 65.25 -1.11171 64.8725 -1.78372 64.2005C-2.45572 63.5285 -2.83325 62.617 -2.83325 61.6667V4.33333C-2.83325 3.38297 -2.45572 2.47154 -1.78372 1.79953C-1.11171 1.12753 -0.200278 0.75 0.750082 0.75ZM33.2151 31.8641L10.2387 12.3528L5.59833 17.8138L33.2617 41.3026L60.4269 17.7959L55.7399 12.3743L33.2187 31.8641H33.2151Z" fill="#3C3C3C"/>
</svg>

<svg width="69" height="66" fill="none" xmlns="http://www.w3.org/2000/svg"><path d="M.75.75h64.5a3.583 3.583 0 013.583 3.583v57.334a3.583 3.583 0 01-3.583 3.583H.75a3.583 3.583 0 01-3.583-3.583V4.333A3.583 3.583 0 01.75.75zm32.465 31.114L10.24 12.353l-4.64 5.46 27.663 23.49 27.165-23.507-4.687-5.422-22.521 19.49h-.004z" fill="#3C3C3C"/></svg>
